X:500
T: TRITT AUF DEN RIEGEL VON DER THUER
N: E0469
O: Europa, Mitteleuropa, Deutschland
R: Liebes - Lied, Kilt -, Fenster - Lied
M: 4/4
L: 1/8
K: F
F2 | F3GA2A2 | F4z2
F2 | G2A2B2B2 | A4z2
F2 | E2F2G2G2 | A4
G2G2 | F2A2G4 | F4z2
F2 | F3GA2A2 | F4z2
F2 | G2A2B2B2 | A4z2
F2 | E2F2G2G2 | A4
G2G2 | F2A2G4 | F4z2
F2 | F2E2F2D2 | C3DE2
F2 | G2c2c2B2 | c4
A4 | G2c2c2B2 | c2
A2B2AG | A4z2A2 | A2A2A2
F2 | G2A2B2A2 | cBAGA2
F2 | E2F2G2G2 | A4G2
G2 | F2A2G2G2 | F4
C4 | F2A2G2G2 | F4z2

